svg/u1f3b4.svg

<svg viewBox="0 0 128 128" xmlns="http://www.w3.org/2000/svg">
  <path d="M102.29,125.43l-76.02-0.37c-3.45,0-6.25-2.8-6.25-6.25L19.85,10.33c0-3.45,2.8-6.25,6.25-6.25 l76.33,0.44c3.45,0,6.48,2.53,6.48,5.98l-0.37,108.69C108.54,122.64,105.74,125.43,102.29,125.43z" fill="#5E6367"/>
  <path d="M24.37,91.33c0,0,0.11-75.25,0.2-77.84c0.09-2.59,1.9-4.49,4.4-4.57S96.99,9,98.97,9 s4.92,0.6,5.09,4.14c0.17,3.54-0.6,70.17-0.6,70.17s-13.01-7.87-29.26-7.94C49.17,75.26,24.37,91.33,24.37,91.33z" fill="#EE534E"/>
  <path d="M53.36,19.02c-13.83,0-22.42,9.43-22.2,23.04c0.21,13.2,9.28,21.58,21.74,21.58 c11.94,0,21.72-8.59,21.93-22.1C75.04,28.03,65.41,19.02,53.36,19.02z" fill="#F5F5F5"/>
</svg>

<svg viewBox="0 0 128 128" xmlns="http://www.w3.org/2000/svg">
  <defs/>
  <path d="M102.29,125.43 L26.27,125.06 C22.82,125.06 20.02,122.26 20.02,118.81 L19.85,10.33 C19.85,6.88 22.65,4.08 26.1,4.08 L102.43,4.52 C105.88,4.52 108.91,7.05 108.91,10.5 L108.54,119.19 C108.54,122.64 105.74,125.43 102.29,125.43 Z" fill="#5E6367"/>
  <path d="M24.37,91.33 C24.37,91.33 24.48,16.08 24.57,13.49 C24.66,10.9 26.47,9 28.97,8.92 C31.47,8.84 96.99,9 98.97,9 C100.95,9 103.89,9.6 104.06,13.14 C104.23,16.68 103.46,83.31 103.46,83.31 C103.46,83.31 90.45,75.44 74.2,75.37 C49.17,75.26 24.37,91.33 24.37,91.33 Z" fill="#EE534E"/>
  <path d="M53.36,19.02 C39.53,19.02 30.94,28.45 31.16,42.06 C31.37,55.26 40.44,63.64 52.9,63.64 C64.84,63.64 74.62,55.05 74.83,41.54 C75.04,28.03 65.41,19.02 53.36,19.02 Z" fill="#F5F5F5"/>
</svg>
